src/activities/baby_tangram/resource/m-truck/cabin.svg

<?xml version="1.0" encoding="UTF-8" standalone="no"?>
<!-- Created with Inkscape (http://www.inkscape.org/) -->

<svg
   xmlns:dc="http://purl.org/dc/elements/1.1/"
   xmlns:cc="http://creativecommons.org/ns#"
   xmlns:rdf="http://www.w3.org/1999/02/22-rdf-syntax-ns#"
   xmlns:svg="http://www.w3.org/2000/svg"
   xmlns="http://www.w3.org/2000/svg"
   xmlns:sodipodi="http://sodipodi.sourceforge.net/DTD/sodipodi-0.dtd"
   xmlns:inkscape="http://www.inkscape.org/namespaces/inkscape"
   width="58.625103mm"
   height="50.264404mm"
   viewBox="0 0 207.72674 178.10222"
   id="svg6809"
   version="1.1"
   inkscape:version="0.92.1 r15371"
   sodipodi:docname="cabin.svg">
  <defs
     id="defs6811" />
  <sodipodi:namedview
     id="base"
     pagecolor="#ffffff"
     bordercolor="#666666"
     borderopacity="1.0"
     inkscape:pageopacity="0.0"
     inkscape:pageshadow="2"
     inkscape:zoom="1.979899"
     inkscape:cx="74.827859"
     inkscape:cy="69.44745"
     inkscape:document-units="px"
     inkscape:current-layer="layer1"
     showgrid="false"
     fit-margin-top="0"
     fit-margin-left="0"
     fit-margin-right="0"
     fit-margin-bottom="0"
     inkscape:window-width="1884"
     inkscape:window-height="1051"
     inkscape:window-x="0"
     inkscape:window-y="0"
     inkscape:window-maximized="1" />
  <metadata
     id="metadata6814">
    <rdf:RDF>
      <cc:Work
         rdf:about="">
        <dc:format>image/svg+xml</dc:format>
        <dc:type
           rdf:resource="http://purl.org/dc/dcmitype/StillImage" />
        <dc:title></dc:title>
        <dc:date>2017</dc:date>
        <dc:creator>
          <cc:Agent>
            <dc:title>Timothée Giet</dc:title>
          </cc:Agent>
        </dc:creator>
        <cc:license
           rdf:resource="http://creativecommons.org/licenses/by-sa/4.0/" />
      </cc:Work>
      <cc:License
         rdf:about="http://creativecommons.org/licenses/by-sa/4.0/">
        <cc:permits
           rdf:resource="http://creativecommons.org/ns#Reproduction" />
        <cc:permits
           rdf:resource="http://creativecommons.org/ns#Distribution" />
        <cc:requires
           rdf:resource="http://creativecommons.org/ns#Notice" />
        <cc:requires
           rdf:resource="http://creativecommons.org/ns#Attribution" />
        <cc:permits
           rdf:resource="http://creativecommons.org/ns#DerivativeWorks" />
        <cc:requires
           rdf:resource="http://creativecommons.org/ns#ShareAlike" />
      </cc:License>
    </rdf:RDF>
  </metadata>
  <g
     inkscape:label="Calque 1"
     inkscape:groupmode="layer"
     id="layer1"
     transform="translate(-264.70806,-303.3111)">
    <path
       style="font-size:12px;fill:#999999;fill-rule:evenodd;stroke-width:1.27213037;fill-opacity:1"
       d="M 157.00586 0.31835938 L 58.0625 1.3222656 C 47.413642 1.3222656 38.551348 7.8579727 36.232422 16.681641 L 24.091797 22.228516 C 23.072183 15.337901 19.030358 3.5819967 5.1992188 3.5117188 C -0.34017342 3.8766148 -0.42659994 15.868327 5.5976562 16.900391 C 11.412602 18.639612 11.800506 23.166896 11.808594 27.839844 L 10.845703 28.279297 C 2.2579162 32.201964 -1.2563252 45.678886 0.3984375 56.140625 L 10.28125 118.62891 L 10.28125 178.93945 L 11.964844 178.93945 L 11.976562 189.77344 L 24.400391 189.77344 L 24.400391 178.93945 L 26.095703 178.93945 L 26.095703 176.67383 C 32.349859 180.85552 40.621095 184.45546 45.097656 185.47461 C 48.75596 187.77846 53.219166 189.14258 58.0625 189.14258 L 214.61328 189.66016 C 219.13224 189.67509 221.27629 186.43981 221.22852 182.09766 L 220.66406 130.78711 C 222.71785 129.21278 212.78026 50.647465 209.47266 45.238281 C 209.63384 45.222788 209.76974 45.206964 209.93359 45.191406 C 208.52173 40.339907 200.39934 27.108808 192.99023 18.253906 C 184.58479 7.8102899 169.43076 0.1922687 157.00586 0.31835938 z "
       transform="matrix(0.93749997,0,0,0.93749997,264.70806,303.3111)"
       id="path6362" />
  </g>
</svg>

<!--Created with Inkscape (http://www.inkscape.org/)--><svg xmlns:dc="http://purl.org/dc/elements/1.1/" xmlns:cc="http://creativecommons.org/ns#" xmlns:rdf="http://www.w3.org/1999/02/22-rdf-syntax-ns#" xmlns="http://www.w3.org/2000/svg" xmlns:sodipodi="http://sodipodi.sourceforge.net/DTD/sodipodi-0.dtd" xmlns:inkscape="http://www.inkscape.org/namespaces/inkscape" width="58.625103mm" height="50.264404mm" viewBox="0 0 207.72674 178.10222" inkscape:version="0.92.1 r15371" sodipodi:docname="cabin.svg"><sodipodi:namedview pagecolor="#ffffff" bordercolor="#666666" borderopacity="1.0" inkscape:pageopacity="0.0" inkscape:pageshadow="2" inkscape:zoom="1.979899" inkscape:cx="74.827859" inkscape:cy="69.44745" inkscape:document-units="px" inkscape:current-layer="layer1" showgrid="false" fit-margin-top="0" fit-margin-left="0" fit-margin-right="0" fit-margin-bottom="0" inkscape:window-width="1884" inkscape:window-height="1051" inkscape:window-x="0" inkscape:window-y="0" inkscape:window-maximized="1"/><metadata><rdf:RDF><cc:Work><dc:format>image/svg+xml</dc:format><dc:type rdf:resource="http://purl.org/dc/dcmitype/StillImage"/><dc:title/><dc:date>2017</dc:date><dc:creator><cc:Agent><dc:title>Timothée Giet</dc:title></cc:Agent></dc:creator><cc:license rdf:resource="http://creativecommons.org/licenses/by-sa/4.0/"/></cc:Work><cc:License rdf:about="http://creativecommons.org/licenses/by-sa/4.0/"><cc:permits rdf:resource="http://creativecommons.org/ns#Reproduction"/><cc:permits rdf:resource="http://creativecommons.org/ns#Distribution"/><cc:requires rdf:resource="http://creativecommons.org/ns#Notice"/><cc:requires rdf:resource="http://creativecommons.org/ns#Attribution"/><cc:permits rdf:resource="http://creativecommons.org/ns#DerivativeWorks"/><cc:requires rdf:resource="http://creativecommons.org/ns#ShareAlike"/></cc:License></rdf:RDF></metadata><path style="font-size:12px;fill:#999;fill-rule:evenodd;stroke-width:1.27213037;fill-opacity:1" d="M157.006.318 58.062 1.322c-10.648 0-19.51 6.536-21.83 15.36l-12.14 5.547C23.072 15.338 19.03 3.582 5.199 3.512c-5.54.365-5.626 12.356.399 13.388 5.815 1.74 6.203 6.267 6.21 10.94l-.962.44C2.258 32.201-1.256 45.678.398 56.14l9.883 62.489v60.31h1.684l.012 10.834H24.4V178.94h1.696v-2.265c6.254 4.182 14.525 7.781 19.002 8.8 3.658 2.304 8.121 3.669 12.965 3.669l156.55.517c4.52.015 6.663-3.22 6.616-7.562l-.565-51.31c2.054-1.575-7.884-80.14-11.191-85.55.16-.015.297-.031.46-.047-1.411-4.851-9.534-18.082-16.943-26.937C184.585 7.81 169.43.192 157.006.318z" transform="rotate(.014) scale(.9375)" inkscape:label="Calque 1" inkscape:groupmode="layer"/></svg>
